Numix-Light-GalliumOS/22/status/indicator-cpufreq-75.svg

<svg xmlns="http://www.w3.org/2000/svg" viewBox="0 0 22 22">
 <path d="m 7 2 c -0.554 0 -1 0.446 -1 1 l 0 1 l -0.25 0 c -0.97 0 -1.75 0.781 -1.75 1.75 l 0 0.25 l -1 0 c -0.554 0 -1 0.446 -1 1 c 0 0.554 0.446 1 1 1 l 1 0 l 0 2 l -1 0 c -0.554 0 -1 0.446 -1 1 c 0 0.554 0.446 1 1 1 l 1 0 l 0 2 l -1 0 c -0.554 0 -1 0.446 -1 1 c 0 0.554 0.446 1 1 1 l 1 0 l 0 0.25 c 0 0.97 0.781 1.75 1.75 1.75 l 0.25 0 l 0 1 c 0 0.554 0.446 1 1 1 c 0.554 0 1 -0.446 1 -1 l 0 -1 l 2 0 l 0 1 c 0 0.554 0.446 1 1 1 c 0.554 0 1 -0.446 1 -1 l 0 -1 l 2 0 l 0 1 c 0 0.554 0.446 1 1 1 c 0.554 0 1 -0.446 1 -1 l 0 -1 l 0.25 0 c 0.97 0 1.75 -0.781 1.75 -1.75 l 0 -0.25 l 1 0 c 0.554 0 1 -0.446 1 -1 c 0 -0.554 -0.446 -1 -1 -1 l -1 0 l 0 -2 l 1 0 c 0.554 0 1 -0.446 1 -1 c 0 -0.554 -0.446 -1 -1 -1 l -1 0 l 0 -2 l 1 0 c 0.554 0 1 -0.446 1 -1 c 0 -0.554 -0.446 -1 -1 -1 l -1 0 l 0 -0.25 c 0 -0.97 -0.781 -1.75 -1.75 -1.75 l -0.25 0 l 0 -1 c 0 -0.554 -0.446 -1 -1 -1 c -0.554 0 -1 0.446 -1 1 l 0 1 l -2 0 l 0 -1 c 0 -0.554 -0.446 -1 -1 -1 c -0.554 0 -1 0.446 -1 1 l 0 1 l -2 0 l 0 -1 c 0 -0.554 -0.446 -1 -1 -1 z m -0.156 4 l 8.313 0 c 0.462 0 0.844 0.382 0.844 0.844 l 0 8.313 c 0 0.462 -0.382 0.844 -0.844 0.844 l -8.313 0 c -0.462 0 -0.844 -0.382 -0.844 -0.844 l 0 -8.313 c 0 -0.462 0.382 -0.844 0.844 -0.844 z" style="fill:#353535;fill-opacity:1;stroke:none;fill-rule:evenodd"/>
 <path d="m 7.6,9 6.8,0 C 14.7324,9 15,9.2676 15,9.6 l 0,4.8 C 15,14.7324 14.7324,15 14.4,15 L 7.6,15 C 7.2676,15 7,14.7324 7,14.4 L 7,9.6 C 7,9.2676 7.2676,9 7.6,9 z" style="fill:#353535;fill-opacity:1;stroke:none;fill-rule:evenodd"/>
</svg>

<?xml version="1.0" encoding="UTF-8" standalone="no"?>
<svg
   xmlns:dc="http://purl.org/dc/elements/1.1/"
   xmlns:cc="http://creativecommons.org/ns#"
   xmlns:rdf="http://www.w3.org/1999/02/22-rdf-syntax-ns#"
   xmlns:svg="http://www.w3.org/2000/svg"
   xmlns="http://www.w3.org/2000/svg"
   xmlns:sodipodi="http://sodipodi.sourceforge.net/DTD/sodipodi-0.dtd"
   xmlns:inkscape="http://www.inkscape.org/namespaces/inkscape"
   width="22"
   viewBox="0 0 22 22"
   height="22"
   id="svg2"
   version="1.1"
   inkscape:version="0.91 r"
   sodipodi:docname="indicator-cpufreq-75.svg">
  <metadata
     id="metadata14">
    <rdf:RDF>
      <cc:Work
         rdf:about="">
        <dc:format>image/svg+xml</dc:format>
        <dc:type
           rdf:resource="http://purl.org/dc/dcmitype/StillImage" />
      </cc:Work>
    </rdf:RDF>
  </metadata>
  <defs
     id="defs12" />
  <sodipodi:namedview
     pagecolor="#ffffff"
     bordercolor="#666666"
     borderopacity="1"
     objecttolerance="10"
     gridtolerance="10"
     guidetolerance="10"
     inkscape:pageopacity="0"
     inkscape:pageshadow="2"
     inkscape:window-width="1280"
     inkscape:window-height="998"
     id="namedview10"
     showgrid="true"
     inkscape:zoom="42.909092"
     inkscape:cx="14.33705"
     inkscape:cy="7.5012685"
     inkscape:window-x="0"
     inkscape:window-y="0"
     inkscape:window-maximized="1"
     inkscape:current-layer="svg2">
    <inkscape:grid
       type="xygrid"
       id="grid3012" />
  </sodipodi:namedview>
  <path
     style="fill:#353535;fill-opacity:1;fill-rule:evenodd;stroke:none"
     d="M 7 2 C 6.446 2 6 2.446 6 3 L 6 4 L 5.75 4 C 4.7805 4 4 4.7805 4 5.75 L 4 6 L 3 6 C 2.446 6 2 6.446 2 7 C 2 7.554 2.446 8 3 8 L 4 8 L 4 10 L 3 10 C 2.446 10 2 10.446 2 11 C 2 11.554 2.446 12 3 12 L 4 12 L 4 14 L 3 14 C 2.446 14 2 14.446 2 15 C 2 15.554 2.446 16 3 16 L 4 16 L 4 16.25 C 4 17.2195 4.7805 18 5.75 18 L 6 18 L 6 19 C 6 19.554 6.446 20 7 20 C 7.554 20 8 19.554 8 19 L 8 18 L 10 18 L 10 19 C 10 19.554 10.446 20 11 20 C 11.554 20 12 19.554 12 19 L 12 18 L 14 18 L 14 19 C 14 19.554 14.446 20 15 20 C 15.554 20 16 19.554 16 19 L 16 18 L 16.25 18 C 17.2195 18 18 17.2195 18 16.25 L 18 16 L 19 16 C 19.554 16 20 15.554 20 15 C 20 14.446 19.554 14 19 14 L 18 14 L 18 12 L 19 12 C 19.554 12 20 11.554 20 11 C 20 10.446 19.554 10 19 10 L 18 10 L 18 8 L 19 8 C 19.554 8 20 7.554 20 7 C 20 6.446 19.554 6 19 6 L 18 6 L 18 5.75 C 18 4.7805 17.2195 4 16.25 4 L 16 4 L 16 3 C 16 2.446 15.554 2 15 2 C 14.446 2 14 2.446 14 3 L 14 4 L 12 4 L 12 3 C 12 2.446 11.554 2 11 2 C 10.446 2 10 2.446 10 3 L 10 4 L 8 4 L 8 3 C 8 2.446 7.554 2 7 2 z M 6.84375 6 L 15.15625 6 C 15.617917 6 16 6.3820833 16 6.84375 L 16 15.15625 C 16 15.617917 15.617917 16 15.15625 16 L 6.84375 16 C 6.3820833 16 6 15.617917 6 15.15625 L 6 6.84375 C 6 6.3820833 6.3820833 6 6.84375 6 z "
     id="rect3034-7" />
  <path
     style="fill:#353535;fill-opacity:1;fill-rule:evenodd;stroke:none"
     d="m 7.6,9 6.8,0 C 14.7324,9 15,9.2676 15,9.6 l 0,4.8 C 15,14.7324 14.7324,15 14.4,15 L 7.6,15 C 7.2676,15 7,14.7324 7,14.4 L 7,9.6 C 7,9.2676 7.2676,9 7.6,9 z"
     id="rect3014"
     inkscape:connector-curvature="0"
     sodipodi:nodetypes="sssssssss" />
</svg>
